X: 38380
T: Star And The Green Stone, The
R: jig
M: 6/8
K: Dmajor
G|:FGA dcd|ecA gfe|afd bge|afd ecA|
DFA dcd|ecA gfe|afd bge|1 edc dAG:|2 edc d2:|
|:e|fAA Bgg|fAA Gee|Fdd dcd|ecA a^g=g|
fAA Bgg|fAA Gee|Fdd fed|ecA d2:|
A|FGA dAG|FGA BGE|FGA dcd|ecA GEA|
FGA dAG|FGA BGE|FGA fed|cBc dAG|
FGA dAG|FGA BGE|FGA dcd|ecA a^g=g|
fAA Gee|Fdd E=cc|BGB d^cB|AEF D2||

